!!!SOCIAL_FUNCTION:	songs with kwekwasa dance
!!!PDT:	1939
!!!OTL: No__30_Song_of_the_Kwekwasa_Dance_(a).krn
!!!LANG: Non-Tone
!!!LING_GROUP: Wakashan
!!!REG: Pacific Northwest
**kern
*staff1
=1-
*clefF4
*k[b-]
*M2/4
4r
8r
8B-\
=2
4B-\
4B-\
=3
4.B-\
16c\LL
16A\JJ
=4
8A\
8r
4A\
=5
8B-\L
16c\L
16c\JJ
8.B-\L
16A\Jk
=6
8A\
8r
4A\
=7
8B-\L
16A\L
16A\JJ
8B-\L
16.A\L
32F\JJk
=8
8F\L
16G\L
16F\JJ
8.F\L
16F\Jk
=9
8F\L
16F\L
16F\JJ
8F\L
16.A\L
32F\JJk
=10
8F\
8r
8.F\L
16F\Jk
=11
8F\L
16E\L
16E\JJ
8E\L
8F\J
=12
16E\LL
16E\J
8E\J
4r
=13
8.E\L
16E\Jk
16E\
16r
16E\LL
16E\JJ
=14
8E\L
8F\J
4r
==
*-
